ui/public/images/logo_relance.svg

<?xml version="1.0" encoding="UTF-8"?>
<svg width="50px" height="50px" version="1.1" viewBox="0 0 80 80" xmlns="http://www.w3.org/2000/svg">
<g fill="none" fill-rule="evenodd">
<g fill-rule="nonzero">
<path id="Shape" d="m39.998 80c-22.054 0-39.998-17.944-39.998-40.002 0-22.054 17.944-39.998 39.998-39.998 22.054 0 39.998 17.944 39.998 39.998 4e-3 22.058-17.94 40.002-39.998 40.002zm0-77.801c-20.842 0-37.799 16.957-37.799 37.799s16.957 37.799 37.799 37.799c20.841 0 37.799-16.957 37.799-37.799 4e-3 -20.842-16.953-37.799-37.799-37.799z" fill="#2FAC66"/>
<path id="Shape" d="m39.997 60.362c-11.228 0-20.364-9.1357-20.364-20.364s9.1357-20.364 20.364-20.364 20.364 9.1357 20.364 20.364-9.1361 20.364-20.364 20.364zm0-39.9c-10.773 0-19.537 8.764-19.537 19.537 0 10.772 8.764 19.537 19.537 19.537 10.772 0 19.536-8.7641 19.536-19.537 5e-3 -10.773-8.7638-19.537-19.536-19.537z" fill="#2FAC66"/>
<polygon id="Shape" points="59.954 35.419 53.258 47.016 59.541 50.644 66.237 39.046" fill="#E20E18"/>
<polygon id="Shape" points="53.672 31.79 46.977 43.387 53.26 47.015 59.956 35.417" fill="#fff"/>
<polygon id="Shape" points="47.395 28.163 40.699 39.76 46.982 43.388 53.678 31.791" fill="#253574"/>
<path id="Shape" d="m47.663 29.177 17.564 10.14-5.955 10.312-17.564-10.14 5.9548-10.312zm-0.2743-1.0131-6.6936 11.595 18.851 10.883 6.694-11.595-18.851-10.883z" fill="#253574"/>
<polygon id="Shape" points="47.635 27.333 34.328 50.388 35.041 50.799 48.348 27.744" fill="#253574"/>
<polygon id="Shape" points="32.604 28.114 13.754 38.997 20.45 50.594 39.299 39.711" fill="#253574"/>
<polygon id="Shape" points="28.536 43.895 28.77 43.382 29.31 43.449 28.903 43.086 29.146 42.595 28.673 42.869 28.271 42.515 28.372 43.042 27.894 43.316 28.43 43.36" fill="#FFE910"/>
<polygon id="Shape" points="24.304 36.326 24.539 35.826 25.079 35.879 24.676 35.516 24.915 35.03 24.446 35.3 24.039 34.954 24.145 35.476 23.672 35.746 24.198 35.786" fill="#FFE910"/>
<polygon id="Shape" points="22.481 42.338 22.715 41.838 23.264 41.887 22.861 41.524 23.114 41.042 22.636 41.321 22.22 40.971 22.322 41.498 21.844 41.776 22.37 41.803" fill="#FFE910"/>
<polygon id="Shape" points="30.324 37.795 30.558 37.295 31.103 37.348 30.704 36.976 30.948 36.507 30.474 36.777 30.063 36.428 30.165 36.958 29.691 37.233 30.213 37.259" fill="#FFE910"/>
<polygon id="Shape" points="26.59 35.693 26.829 35.189 27.373 35.238 26.971 34.879 27.214 34.392 26.741 34.667 26.329 34.308 26.431 34.844 25.953 35.122 26.484 35.158" fill="#FFE910"/>
<polygon id="Shape" points="28.786 36.282 29.025 35.777 29.569 35.826 29.162 35.459 29.405 34.976 28.932 35.246 28.525 34.897 28.618 35.432 28.144 35.702 28.68 35.738" fill="#FFE910"/>
<polygon id="Shape" points="30.77 39.967 31.004 39.471 31.553 39.52 31.15 39.157 31.398 38.666 30.92 38.94 30.509 38.591 30.606 39.122 30.133 39.396 30.664 39.44" fill="#FFE910"/>
<polygon id="Shape" points="30.156 42.197 30.395 41.688 30.944 41.745 30.536 41.378 30.784 40.892 30.311 41.166 29.895 40.816 29.997 41.347 29.523 41.622 30.054 41.657" fill="#FFE910"/>
<polygon id="Shape" points="26.348 44.395 26.583 43.887 27.136 43.94 26.729 43.572 26.977 43.086 26.499 43.36 26.088 43.011 26.185 43.542 25.707 43.816 26.238 43.856" fill="#FFE910"/>
<polygon id="Shape" points="24.207 43.772 24.446 43.276 24.986 43.32 24.588 42.962 24.836 42.471 24.358 42.745 23.951 42.4 24.044 42.926 23.57 43.201 24.106 43.241" fill="#FFE910"/>
<polygon id="Shape" points="21.907 40.25 22.142 39.75 22.69 39.799 22.283 39.432 22.535 38.945 22.053 39.219 21.642 38.874 21.739 39.405 21.266 39.675 21.796 39.715" fill="#FFE910"/>
<polygon id="Shape" points="22.454 38.091 22.688 37.591 23.233 37.644 22.83 37.281 23.073 36.799 22.604 37.069 22.184 36.715 22.29 37.25 21.812 37.525 22.343 37.565" fill="#FFE910"/>
<polygon id="Shape" points="32.369 27.33 31.656 27.741 44.966 50.794 45.679 50.382" fill="#253574"/>
<polygon id="Shape" points="9.8633 25.491 12.721 20.492 14.168 21.32 12.305 24.58 14.34 25.744 15.924 22.974 17.371 23.801 15.787 26.571 19.437 28.659 18.442 30.398" fill="#2FAC66"/>
<path id="Shape" d="m16.121 16.471 2.3182-1.9334c1.6679-1.3891 3.4109-1.3935 4.5877 0.0177 0.7654 0.9202 0.8937 1.9732 0.4115 2.9818l5.1761 1.3804-1.8094 1.5086-4.5833-1.3804-0.792 0.6592 2.5571 3.0703-1.5395 1.283-6.3264-7.5872zm2.6058 0 1.6324 1.9642 0.8671-0.7211c0.6504-0.5441 0.7123-1.2387 0.1991-1.8537-0.4778-0.5751-1.1812-0.6503-1.836-0.1061l-0.8626 0.7167z" fill="#2FAC66"/>
<path id="Shape" d="m30.327 8.0429 2.5395-0.66361 6.1096 8.618-2.0616 0.5353-1.5617-2.2474-3.8268 0.9954-0.2655 2.7252-2.0616 0.5353 1.1281-10.498zm3.995 4.747-2.2475-3.2517-0.376 3.933 2.6235-0.6813z" fill="#2FAC66"/>
<polygon id="Shape" points="42.38 6.4237 44.897 6.9457 47.769 14.838 49.224 7.8438 51.188 8.2508 49.176 17.926 46.658 17.404 43.787 9.5117 42.332 16.506 40.367 16.099" fill="#2FAC66"/>
<path id="Shape" d="m58.878 21.222 0.491 1.9333c-1.469 0.407-3.11 0.1195-4.5168-0.991-2.4509-1.9289-2.6411-5.1319-0.8936-7.3483 1.7474-2.2165 4.9014-2.7827 7.3524-0.8539 1.407 1.1061 2.062 2.6456 2.031 4.1498l-2-0.0133c0.053-0.9821-0.305-1.9643-1.19-2.6632-1.464-1.1503-3.402-0.8318-4.574 0.6547-1.1682 1.4865-1.0266 3.4463 0.438 4.601 0.885 0.6946 1.92 0.814 2.862 0.5309z" fill="#2FAC66"/>
<polygon id="Shape" points="67.757 21.275 70.544 26.314 69.088 27.119 67.27 23.837 65.222 24.969 66.766 27.761 65.31 28.566 63.766 25.774 61.545 27.004 63.364 30.291 61.908 31.097 59.121 26.058" fill="#2FAC66"/>
<path id="Shape" d="m17.12 47.483 1.3449 2.7031c0.9689 1.9466 0.5663 3.641-1.075 4.4595-1.0751 0.5353-2.128 0.4114-2.9951-0.292l-2.5394 4.716-1.0485-2.1103 2.4022-4.1409-0.4601-0.9202-3.5746 1.7785-0.8937-1.7962 8.8393-4.3975zm-0.5973 2.5394-2.2872 1.137 0.5044 1.0087c0.376 0.7565 1.0396 0.9777 1.7607 0.6238 0.6681-0.3318 0.9025-0.9998 0.5265-1.7608l-0.5044-1.0087z" fill="#2FAC66"/>
<polygon id="Shape" points="21.537 55.296 25.678 59.296 24.523 60.494 21.824 57.889 20.196 59.574 22.493 61.791 21.338 62.99 19.042 60.778 17.277 62.605 19.975 65.21 18.821 66.409 14.68 62.41" fill="#2FAC66"/>
<polygon id="Shape" points="27.416 60.366 29.217 61.242 25.691 68.489 29.066 70.13 28.27 71.767 23.094 69.25" fill="#2FAC66"/>
<path id="Shape" d="m36.758 63.636 2.6146 0.2168 2.9111 10.153-2.1236-0.177-0.7299-2.6367-3.9374-0.3274-1.1547 2.4819-2.1236-0.177 4.5435-9.5338zm2.1944 5.8043-1.0441-3.8091-1.6546 3.5879 2.6987 0.2212z" fill="#2FAC66"/>
<polygon id="Shape" points="43.934 63.928 46.345 63.043 52.95 68.223 50.49 61.521 52.37 60.831 55.772 70.103 53.361 70.988 46.756 65.803 49.216 72.506 47.336 73.196" fill="#2FAC66"/>
<path id="a" d="m63.98 59.526 1.978-0.2566c0.225 1.5086-0.257 3.1012-1.527 4.3665-2.207 2.1988-5.41 2.0041-7.401 0.0044-1.991-1.9996-2.1724-5.2026 0.035-7.4014 1.27-1.2653 2.876-1.7298 4.362-1.5174l-0.252 1.9864c-0.969-0.1726-1.986 0.0663-2.787 0.8627-1.318 1.3139-1.234 3.2782 0.102 4.6187 1.336 1.3404 3.3 1.4333 4.618 0.1194 0.797-0.8008 1.04-1.8183 0.872-2.7827z" fill="#2FAC66"/>
<polygon points="60.613 52.23 62.98 46.979 64.498 47.66 62.954 51.084 65.09 52.049 66.4 49.142 67.917 49.824 66.608 52.73 68.922 53.774 70.466 50.35 71.983 51.036 69.616 56.283" fill="#2FAC66"/>
</g>
</g>
</svg>

<svg width="50px" height="50px" viewBox="0 0 80 80" version="1.1" xmlns="http://www.w3.org/2000/svg" xmlns:xlink="http://www.w3.org/1999/xlink">
    <g id="FranceRelance" stroke="none" stroke-width="1" fill="none" fill-rule="evenodd">
        <g id="relance" fill-rule="nonzero">
            <path d="M39.9978,80 C17.9439,80 0,62.0561 0,39.9978 C0,17.9439 17.9439,0 39.9978,0 C62.052,0 79.996,17.9439 79.996,39.9978 C80,62.0561 62.056,80 39.9978,80 Z M39.9978,2.19875 C19.1561,2.19875 2.1988,19.1561 2.1988,39.9978 C2.1988,60.8395 19.1561,77.7968 39.9978,77.7968 C60.839,77.7968 77.797,60.8395 77.797,39.9978 C77.801,19.1561 60.844,2.19875 39.9978,2.19875 Z" id="Shape" fill="#2FAC66"></path>
            <path d="M39.9967,60.3617 C28.7685,60.3617 19.6328,51.226 19.6328,39.9978 C19.6328,28.7696 28.7685,19.6339 39.9967,19.6339 C51.2249,19.6339 60.361,28.7696 60.361,39.9978 C60.361,51.226 51.2249,60.3617 39.9967,60.3617 Z M39.9967,20.4612 C29.2241,20.4612 20.4601,29.2252 20.4601,39.9978 C20.4601,50.7703 29.2241,59.5344 39.9967,59.5344 C50.7692,59.5344 59.533,50.7703 59.533,39.9978 C59.538,29.2252 50.7692,20.4612 39.9967,20.4612 Z" id="Shape" fill="#2FAC66"></path>
            <polygon id="Shape" fill="#E20E18" points="59.954 35.4187 53.2578 47.0158 59.541 50.6435 66.237 39.0464"></polygon>
            <polygon id="Shape" fill="#FFFFFF" points="53.6724 31.7897 46.9766 43.3868 53.2598 47.0146 59.956 35.4174"></polygon>
            <polygon id="Shape" fill="#253574" points="47.395 28.1631 40.6992 39.7603 46.9824 43.388 53.6782 31.7909"></polygon>
            <path d="M47.6632,29.1766 L65.227,39.3165 L59.272,49.629 L41.7084,39.4891 L47.6632,29.1766 Z M47.3889,28.1635 L40.6953,39.7589 L59.546,50.6421 L66.24,39.0467 L47.3889,28.1635 Z" id="Shape" fill="#253574"></path>
            <polygon id="Shape" fill="#253574" points="47.6352 27.3329 34.3281 50.388 35.0408 50.7994 48.3479 27.7442"></polygon>
            <polygon id="Shape" fill="#253574" points="32.6035 28.1135 13.7539 38.9966 20.4497 50.5938 39.2993 39.7106"></polygon>
            <polygon id="Shape" fill="#FFE910" points="28.536 43.8954 28.7705 43.3822 29.3102 43.4486 28.9032 43.0858 29.1465 42.5948 28.6732 42.8691 28.2706 42.5151 28.3723 43.0416 27.8945 43.3159 28.4298 43.3601"></polygon>
            <polygon id="Shape" fill="#FFE910" points="24.3045 36.3259 24.539 35.8259 25.0787 35.879 24.6761 35.5163 24.915 35.0296 24.4461 35.2995 24.0391 34.9544 24.1452 35.4764 23.6719 35.7463 24.1983 35.7861"></polygon>
            <polygon id="Shape" fill="#FFE910" points="22.4808 42.3381 22.7153 41.8382 23.2639 41.8868 22.8613 41.5241 23.1135 41.0419 22.6357 41.3206 22.2198 40.9711 22.3215 41.4975 21.8438 41.7762 22.3702 41.8028"></polygon>
            <polygon id="Shape" fill="#FFE910" points="30.324 37.7946 30.5585 37.2947 31.1027 37.3478 30.7045 36.9762 30.9478 36.5072 30.4745 36.7771 30.063 36.4276 30.1648 36.9585 29.6914 37.2328 30.2134 37.2593"></polygon>
            <polygon id="Shape" fill="#FFE910" points="26.5902 35.6932 26.8291 35.1889 27.3732 35.2375 26.9707 34.8792 27.214 34.3925 26.7406 34.6668 26.3292 34.3085 26.4309 34.8438 25.9531 35.1225 26.484 35.1579"></polygon>
            <polygon id="Shape" fill="#FFE910" points="28.786 36.2816 29.0249 35.7773 29.5691 35.826 29.1621 35.4588 29.4054 34.9765 28.932 35.2464 28.525 34.8969 28.6179 35.4322 28.1445 35.7021 28.6798 35.7375"></polygon>
            <polygon id="Shape" fill="#FFE910" points="30.7699 39.9669 31.0043 39.4714 31.5529 39.5201 31.1503 39.1573 31.3981 38.6662 30.9203 38.9405 30.5089 38.591 30.6062 39.1219 30.1328 39.3962 30.6637 39.4404"></polygon>
            <polygon id="Shape" fill="#FFE910" points="30.1561 42.1966 30.395 41.6878 30.9436 41.7453 30.5365 41.3781 30.7843 40.8915 30.3109 41.1658 29.8951 40.8163 29.9968 41.3472 29.5234 41.6215 30.0543 41.6569"></polygon>
            <polygon id="Shape" fill="#FFE910" points="26.3485 44.3953 26.583 43.8866 27.136 43.9397 26.729 43.5725 26.9767 43.0858 26.4989 43.3601 26.0875 43.0106 26.1848 43.5415 25.707 43.8158 26.2379 43.8556"></polygon>
            <polygon id="Shape" fill="#FFE910" points="24.2074 43.7715 24.4463 43.276 24.986 43.3203 24.5878 42.9619 24.8356 42.4709 24.3578 42.7452 23.9508 42.4001 24.0437 42.9265 23.5703 43.2008 24.1056 43.2407"></polygon>
            <polygon id="Shape" fill="#FFE910" points="21.9071 40.25 22.1416 39.75 22.6902 39.7987 22.2832 39.4315 22.5353 38.9449 22.0531 39.2192 21.6417 38.8741 21.739 39.405 21.2656 39.6748 21.7965 39.7147"></polygon>
            <polygon id="Shape" fill="#FFE910" points="22.454 38.091 22.6885 37.5911 23.2326 37.6442 22.83 37.2814 23.0734 36.7992 22.6044 37.0691 22.1841 36.7151 22.2903 37.2505 21.8125 37.5247 22.3434 37.5646"></polygon>
            <polygon id="Shape" fill="#253574" points="32.3689 27.3298 31.6562 27.7412 44.966 50.7937 45.6786 50.3822"></polygon>
            <polygon id="Shape" fill="#2FAC66" points="9.8633 25.4914 12.7212 20.4922 14.1679 21.3195 12.3054 24.58 14.3404 25.7435 15.9242 22.9741 17.3709 23.8014 15.7871 26.5708 19.4369 28.659 18.4415 30.3976"></polygon>
            <path d="M16.1211,16.4707 L18.4393,14.5373 C20.1072,13.1482 21.8502,13.1438 23.027,14.555 C23.7924,15.4752 23.9207,16.5282 23.4385,17.5368 L28.6146,18.9172 L26.8052,20.4258 L22.2219,19.0454 L21.4299,19.7046 L23.987,22.7749 L22.4475,24.0579 L16.1211,16.4707 Z M18.7269,16.4707 L20.3593,18.4349 L21.2264,17.7138 C21.8768,17.1697 21.9387,16.4751 21.4255,15.8601 C20.9477,15.285 20.2443,15.2098 19.5895,15.754 L18.7269,16.4707 Z" id="Shape" fill="#2FAC66"></path>
            <path d="M30.3273,8.04288 L32.8668,7.37927 L38.9764,15.9973 L36.9148,16.5326 L35.3531,14.2852 L31.5263,15.2806 L31.2608,18.0058 L29.1992,18.5411 L30.3273,8.04288 Z M34.3223,12.7899 L32.0748,9.53821 L31.6988,13.4712 L34.3223,12.7899 Z" id="Shape" fill="#2FAC66"></path>
            <polygon id="Shape" fill="#2FAC66" points="42.3801 6.42371 44.8974 6.94574 47.7686 14.8382 49.2241 7.84382 51.1884 8.25084 49.1755 17.9262 46.6582 17.4042 43.787 9.51169 42.3315 16.5061 40.3672 16.0991"></polygon>
            <path d="M58.878,21.2222 L59.369,23.1555 C57.9,23.5625 56.259,23.275 54.8522,22.1645 C52.4013,20.2356 52.2111,17.0326 53.9586,14.8162 C55.706,12.5997 58.86,12.0335 61.311,13.9623 C62.718,15.0684 63.373,16.6079 63.342,18.1121 L61.342,18.0988 C61.395,17.1167 61.037,16.1345 60.152,15.4356 C58.688,14.2853 56.75,14.6038 55.578,16.0903 C54.4098,17.5768 54.5514,19.5366 56.016,20.6913 C56.901,21.3859 57.936,21.5053 58.878,21.2222 Z" id="Shape" fill="#2FAC66"></path>
            <polygon id="Shape" fill="#2FAC66" points="67.757 21.2752 70.544 26.3142 69.088 27.1194 67.27 23.8367 65.222 24.9693 66.766 27.7609 65.31 28.566 63.766 25.7745 61.545 27.0043 63.364 30.2914 61.908 31.0966 59.121 26.0576"></polygon>
            <path d="M17.1205,47.4833 L18.4654,50.1864 C19.4343,52.133 19.0317,53.8274 17.3904,54.6459 C16.3153,55.1812 15.2624,55.0573 14.3953,54.3539 L11.8559,59.0699 L10.8074,56.9596 L13.2096,52.8187 L12.7495,51.8985 L9.1749,53.677 L8.2812,51.8808 L17.1205,47.4833 Z M16.5232,50.0227 L14.236,51.1597 L14.7404,52.1684 C15.1164,52.9249 15.78,53.1461 16.5011,52.7922 C17.1692,52.4604 17.4036,51.7924 17.0276,51.0314 L16.5232,50.0227 Z" id="Shape" fill="#2FAC66"></path>
            <polygon id="Shape" fill="#2FAC66" points="21.537 55.2961 25.6779 59.2955 24.5232 60.4944 21.8245 57.8886 20.1965 59.5742 22.4926 61.7906 21.3379 62.9896 19.0418 60.7775 17.2766 62.6047 19.9753 65.2104 18.8206 66.4093 14.6797 62.41"></polygon>
            <polygon id="Shape" fill="#2FAC66" points="27.416 60.3661 29.2166 61.2421 25.6907 68.4887 29.0662 70.13 28.2699 71.7669 23.0938 69.2496"></polygon>
            <path d="M36.7583,63.6355 L39.3729,63.8523 L42.284,74.0055 L40.1604,73.8285 L39.4305,71.1918 L35.4931,70.8644 L34.3384,73.3463 L32.2148,73.1693 L36.7583,63.6355 Z M38.9527,69.4398 L37.9086,65.6307 L36.254,69.2186 L38.9527,69.4398 Z" id="Shape" fill="#2FAC66"></path>
            <polygon id="Shape" fill="#2FAC66" points="43.9336 63.9275 46.3447 63.0426 52.9498 68.2232 50.49 61.5208 52.3702 60.8306 55.772 70.1034 53.3612 70.9882 46.7561 65.8033 49.2159 72.5057 47.3357 73.1958"></polygon>
            <path d="M63.98,59.5256 L65.958,59.269 C66.183,60.7776 65.701,62.3702 64.431,63.6355 C62.224,65.8343 59.021,65.6396 57.03,63.6399 C55.039,61.6403 54.8576,58.4373 57.065,56.2385 C58.335,54.9732 59.941,54.5087 61.427,54.7211 L61.175,56.7075 C60.206,56.5349 59.189,56.7738 58.388,57.5702 C57.07,58.8841 57.154,60.8484 58.49,62.1889 C59.826,63.5293 61.79,63.6222 63.108,62.3083 C63.905,61.5075 64.148,60.49 63.98,59.5256 Z" id="Shape" fill="#2FAC66"></path>
            <polygon id="Shape" fill="#2FAC66" points="60.613 52.2303 62.98 46.979 64.498 47.6603 62.954 51.0845 65.09 52.049 66.4 49.1424 67.917 49.8237 66.608 52.7303 68.922 53.7743 70.466 50.3501 71.983 51.0359 69.616 56.2828"></polygon>
        </g>
    </g>
</svg>
